source/icons/laptop.svg

<svg xmlns="http://www.w3.org/2000/svg" width="8" height="8" viewBox="0 0 8 8">
  <path d="M1.34 0a.5.5 0 0 0-.34.5v3.5h-1v1.5c0 .28.22.5.5.5h7.010000000000001c.28 0 .5-.22.5-.5v-1.5h-1v-3.5a.5.5 0 0 0-.5-.5h-5a.5.5 0 0 0-.09 0 .5.5 0 0 0-.06 0zm.66 1h4v3h-1v1h-2v-1h-1v-3z" transform="translate(0 1)" />
</svg>

<svg xmlns="http://www.w3.org/2000/svg" width="8" height="8" viewBox="0 0 8 8"><path d="M1.34 0A.5.5 0 0 0 1 .5V4H0v1.5c0 .28.22.5.5.5h7.01c.28 0 .5-.22.5-.5V4h-1V.5a.5.5 0 0 0-.5-.5h-5a.5.5 0 0 0-.09 0 .5.5 0 0 0-.06 0zM2 1h4v3H5v1H3V4H2V1z" transform="translate(0 1)"/></svg>
